X:1
T:National Anthem of the USSR/Russian Federation
T:Alexander Alexandrov& Sergey Mikhalkov
T:Arr.Alpha Templarus
T:"Nation's Grace"
T:Version copyright 2014, Turov Music Publishers Song Copyright 1944 Alexander Alexandrov &amp; Sergey Mikhalkov
T:Version copyright 2014, Turov Music Publishers Song Copyright 1944 Alexander Alexandrov &amp; Sergey Mikhalkov
T:Version copyright 2014, Turov Music Publishers Song Copyright 1944 Alexander Alexandrov &amp; Sergey Mikhalkov
T:Version copyright 2014, Turov Music Publishers Song Copyright 1944 Alexander Alexandrov &amp; Sergey Mikhalkov
Z:Version copyright 2014, Turov Music Publishers
Z:Song Copyright 1944 Alexander Alexandrov & Sergey Mikhalkov
%%score { 1 | 2 } 3 ( 4 5 ) 6
L:1/8
Q:1/4=72
M:4/4
K:C
V:1 treble nm="Piano" snm="Pno."
V:2 bass 
V:3 treble-8 nm="Electric Guitar" snm="El. Guit."
V:4 bass-8 nm="Bass Guitar" snm="B. Guit."
V:5 bass-8 
V:6 perc stafflines=3 nm="Drumset" snm="Drs."
K:none
I:percmap A A 40 normal
I:percmap B B 45 normal
I:percmap D D 35 normal
I:percmap F F 41 normal
I:percmap ^c c 46 x
I:percmap ^d d 51 x
I:percmap ^f f 49 x
I:percmap ^g g 55 x
I:percmap _d d 53 diamond
I:percmap c c 47 normal
I:percmap d d 48 normal
V:1
!f!"^Adagio" [CEGc]6 z!mf! G |:"^Heroically!" [CEGc]2 [CEG]G/A/ [B,EGB]2 [G,B,E]E | %2
 [G,B,A]2 [CEG]>A [B,EGB]2 [G,B,E]E | [F,A,D]2 [F,A,D]>E [A,DF]2 [A,DF]>[A,EG] | %4
 [A,FA]2 [B,GB][CGAc] [DGBd]3 G | [EGce]2 [DGd]>[CAc] [DGBd]2 [B,DB]G | %6
 [CEAc]2 [B,EB]>[A,^FA] [B,EGB]2 [G,B,E]E | [A,CA]2 [A,CG]>F [G,CG]2 [G,C]>C | %8
 [C^Fc]2 [CEB]>=F [B,G][B,GB][CAc][DBd] | [EGce]4 [Bd][Ac][GB][Ac] | %10
 [DGBd]3 [B,DG] [B,DG][B,GB][CAc][DBd] | [CEAc]4 [B,GB][A,^FA][G,EG][A,=FA] | %12
 [B,EGB]3 [G,B,E] [G,B,E][G,EG][A,CFA][B,GB] | [CAc]2 [CFA]>[GB] [CAc]2 [CFA]>[GB] | %14
 [CAc]2 [CFA][CAc] [FAcf]4 | [FAcf]2 [FAc]2 [GBe]d[FAc][GBd] | [EGce]3 [EGc] [EGc]4 | %17
 [DFAd]2 [DFA]2 [E^Gc]B[D^FA][E=GB] | [CEAc]3 [CEA] [CEA]4 |1 [CAc]2 [GB]>[FA] [G,CG]2 [G,C]>C ||1 %20
 [C^Fc]2 [CEB]>[C=FA] [B,G]2 [B,=FG]G :|2 [CAc]2 [GB]>[FA] [G,CG]2 [G,C]>C || %22
 [G,B,FG]4 [A,CGA]2 [B,FGB]2 |!ff! [CEGc]8 |] z8 |] %25
V:2
 [C,,C,]8 |: [C,,C,]2 [C,,C,]2 [E,,E,]2 [E,,E,]2 | [F,,F,]2 [F,,F,]2 [E,,E,]2 [E,,E,]2 | %3
 [D,,D,]2 [D,,D,]2 [C,,C,]4 | [C,,C,][C,,C,][B,,,B,,][A,,,A,,] [G,,,G,,][F,,F,][E,,E,][D,,D,] | %5
 [C,,C,]2 [E,,E,]2 [G,,G,]D,B,,A,, | [A,,,A,,]2 [D,,D,]2 [E,,E,]B,,G,,E,, | %7
 [F,,F,]2 [D,,D,]2 [E,,E,]2 [E,,E,]2 | [D,,D,]2 [D,,D,]2 [G,,G,][F,,F,][E,,E,][D,,D,] | %9
 [C,,C,][B,,,B,,][C,,C,][D,,D,] [E,,E,]2 [E,,E,]2 | [G,,G,]G,,B,,D, [F,,G,]2 [F,,F,][E,,E,] | %11
 [A,,,A,,]E,,[A,,,A,,][B,,,B,,] [C,,C,]2 [C,,C,]2 | %12
 [E,,E,]E,,G,,B,, [E,,E,][E,,E,][D,,D,][G,,,G,,] |!mf! [G,,,F,,]3 [C,,C,] [A,,A,]2 [A,,A,][G,,G,] | %14
 [F,,F,]3 [C,,C,] [A,,A,][G,,G,][F,,F,][E,,E,] | [D,,D,]3 [E,,E,]/[F,,F,]/ [G,,G,]2 [G,,,G,,]2 | %16
 [C,,C,][B,,,B,,][C,,C,][E,,E,] [D,,D,][C,,C,][B,,,B,,][A,,,A,,] | %17
 [B,,,B,,]3 [C,,C,]/[D,,D,]/ [E,,E,]2 [E,,E,]2 | %18
 [A,,,A,,][B,,,B,,][C,,C,][E,,E,] [A,,A,]2 [G,,G,]2 |1 [F,,F,]2 [D,,D,]2 [E,,E,]2 [E,,E,]2 ||1 %20
 [D,,D,]2 [D,,D,]2 [G,,G,]2 [G,,,G,,]2 :|2 [F,,F,]2 [D,,D,]2 [E,,E,]2 [E,,E,]2 || %22
 [G,,,G,,]4 [G,,,G,,]2 [G,,,G,,]2 | [C,,C,]8 |] z2 z2 z4 |] %25
V:3
"^Overdriven Guitar" [CEGc]6 z G |: [CEGc]2 [CEG]G/A/ [B,EGB]2 [G,B,E]E | %2
 [G,B,A]2 [CEG]>A [B,EGB]2 [G,B,E]E | [F,A,D]2 [F,A,D]>E [A,DF]2 [A,DF]>[A,EG] | %4
 [A,FA]2 [B,GB][CGAc] [DGBd]3 G | [EGce]2 [DGd]>[CAc] [DGBd]2 [B,DB]G | %6
 [CEAc]2 [B,EB]>[A,^FA] [B,EGB]2 [G,B,E]E | [A,CA]2 [A,CG]>F [G,CG]2 [G,C]>C | %8
 [C^Fc]2 [CEB]>=F [B,G][B,GB][CAc][DBd] | [EGce]4 [Bd][Ac][GB][Ac] | %10
 [DGBd]3 [B,DG] [B,DG][B,GB][CAc][DBd] | [CEAc]4 [B,GB][A,^FA][G,EG][A,=FA] | %12
 [B,EGB]3 [G,B,E] [G,B,E][G,EG][A,CFA][B,GB] | [CAc]2 [CFA]>[GB] [CAc]2 [CFA]>[GB] | %14
 [CAc]2 [CFA][CAc] [FAcf]4 | [FAcf]2 [FAc]2 [GBe]d[FAc][GBd] | [EGce]3 [EGc] [EGc]4 | %17
 [DFAd]2 [DFA]2 [E^Gc]B[D^FA][E=GB] | [CEAc]3 [CEA] [CEA]4 |1 [CAc]2 [GB]>[FA] [G,CG]2 [G,C]>C ||1 %20
 [C^Fc]2 [CEB]>[C=FA] [B,G]2 [B,=FG]G :|2 [CAc]2 [GB]>[FA] [G,CG]2 [G,C]>C || %22
 [G,B,FG]4 [A,CGA]2 [B,FGB]2 | [CEGc]8 |] z2 z2 z4 |] %25
V:4
 [C,,C,]8 |:!f! [C,,C,]2 [C,,C,]2 [E,,E,]2 [E,,E,]2 | [F,,F,]2 [F,,F,]2 [E,,E,]2 [E,,E,]2 | %3
 [D,,D,]2 [D,,D,]2 [C,,C,]4 | [C,,C,][C,,C,][B,,,B,,][A,,,A,,] [B,,,G,,][F,,F,][E,,E,][D,,D,] | %5
 [C,,A,,]2 [E,,E,]2 [G,,G,]D,B,,A,, | [A,,,A,,]2 [D,,D,]2 [E,,E,]B,,G,,E,, | %7
 [F,,F,]2 [D,,D,]2 [E,,E,]2 [E,,E,]2 | [D,,D,]2 [D,,D,]2 [G,,G,][F,,F,][E,,E,][D,,D,] | %9
 [C,,C,][B,,,B,,][C,,C,][D,,D,] [E,,E,]2 [E,,F,]2 | [A,,G,]G,,B,,D, [F,,G,]2 [F,,F,][E,,E,] | %11
 [A,,,A,,]E,,[A,,,A,,][B,,,B,,] [C,,C,]2 [C,,C,]2 | [E,,E,]E,,G,,B,, [E,,E,][E,,E,][D,,D,]G,, | %13
 F,,3 [C,,C,] [A,,A,]2 [A,,A,][G,,G,] | [F,,F,]3 [C,,C,] [A,,A,][G,,G,][F,,F,][E,,E,] | %15
 [D,,D,]3 [E,,E,]/[F,,F,]/ [G,,G,]2 [A,,,G,,]2 | %16
 [C,,C,][B,,,B,,][C,,C,][E,,E,] [D,,D,][C,,C,][B,,,B,,][A,,,A,,] | %17
 [B,,,B,,]3 [C,,C,]/[D,,D,]/ [E,,E,]2 [E,,E,]2 | %18
 [A,,,A,,][B,,,B,,][C,,C,][E,,E,] [A,,A,]2 [G,,G,]2 |1 [F,,F,]2 [D,,D,]2 [E,,E,]2 [E,,E,]2 ||1 %20
 [D,,D,]2 [D,,D,]2 [G,,G,]2 [A,,,G,,]2 :|2 A,,8- || A,,8 | [C,,C,]8 |] z2 z2 z4 |] %25
V:5
 x8 |: x8 | x8 | x8 | x8 | x8 | x8 | x8 | x8 | x8 | x8 | x8 | x8 | x8 | x8 | x8 | x8 | x8 | x8 |1 %19
 x8 ||1 x8 :|2 [F,,F,]2 [D,,D,]2 [E,,E,]2 [E,,E,]2 || [A,,,G,,]4 [A,,,G,,]2 [A,,,G,,]2 | x8 |] %24
 x8 |] %25
V:6
 z4 z2 z!f! D |: [D^f]2 [A^c]^c/^c/ [D^c]2 [A^c]^c | [D^f]2 [A^c]>^c [D^c]2 [A^c]^c | %3
 [D^f]2 [A^c]>^c [D^c]2 [A^c]>^c | [D^f]2 [B^c][B^c] [^cc]3 [^cd] | %5
 [Dd^g]2 [A^d]>^d [D^d]2 [B^d][F^d] | [D^g]2 [c^d]>[d^d] [F^d]2 [D^d][D^d] | %7
 [D^g]2 [A^d]>^d [D^d]2 [A^d]>[A^d] | [D^d]2 [A^d]>^d [D^d][D^d][A^d][A^d] | %9
 [DA^c^g]4 [D^d]^d[A^d]^d | [DA^c^f]3 [D^d] [D^d]^d[A^d]^d | [DA^c^f]4 [D^d]^d[A^d]^d | %12
 [DA^c^f]3 ^d [F^d][B^d][c^d][d^d] | [DF^f]2 [A_d]>_d [D_d]2 [A_d]>_d | %14
 [D_d]2 [A_d][A_d] [D_d^f]4 | [D^d]2 [A^d]2 [D^d][D^d][DA^d][DA^d] | [D^d]3 ^d [A^d]4 | %17
 [D^d]2 [A^d]2 [D^d][D^d][DA^d][D^d] | [D^d]3 [D^d] [DA^d]4 |1 [D^d]2 [A^d]>^d [D^d]2 [A^d]>^d ||1 %20
 [D^d]2 [A^d]>^d [D^d]2 [A^d]^d :|2 [D^d]2 [A^d]>^d [D^d]2 [A^d]>^d || %22
 [DA^d^f^g]4 [DA^d^f^g]2 [DA^d^f^g]2 | !///!^d8 |] z2 z2 z2 z2 |] %25

